X:264
T: EIN BETTELMANN KAM AUS HUNGERLAND HER
N: E0139A
O: Europa, Mitteleuropa, Deutschland, Uckermark
R: erzaehlendes Volks - Lied, Scherz, Schwank, betrogener Ehemann
M: 6/8
L: 1/16
K: D
A2 | d3cB2A4A2 | d3cB2A4z2 |
d4B2A4A2 | A2B2A2A2F2F2 | F2E2E2D4z2 |
A3ce3d | c3BA4
F3GA3G | F3ED4

@@@ Tune index: 3914
